X: 9361
T: Dancing In The Sky
R: reel
M: 4/4
K: Aminor
|:e2 A3 age|cded cAAa|eAB/2B/2A Aage|cded dcBF|
AAEA Aage|cd2d dcBd|d/2d/2cBc ABcd|egdg AcB/2B/2_B|
A2EA AAge|cded cAAa|eAB/2B/2A2 Age|cded dcBF|
AAEA Aage|cded dcBd|d/2d/2cBc ABcd|egde AcB/2B/2_B|
A3a AAbA|Ac'AA gedg|eAA/2A/2A gAaA|AbAA gedg|
eAA/2A/2A aAbb|c'AeA gedg|eage ^gaaA|Aged AcB/2B/2_B|
A3a AAbA|Ac'AA gedg|eAA/2A/2A gAaA|AbAA gedg|
eAA/2A/2A aAbA|Ac'AA d'AAe'|AAeA AfAA|fAAf gagf:|

